X:180
T: Muede kehrt ein Wandersmann zurueck
N: D1011
O: Europa, Mitteleuropa, Deutschland, ???
N: DVA-Signatur A 57 199
R: Liebes - Lied
M: 4/4
L: 1/8
K: G
DD | B3AGFGB | D4z2
FG | A3GFAed | B4z2
GA | B3dcBAG | E4z2
GE | D3GFAed | B4z2
GA | B3dcBAG | E4z2
GE | D3GFAed | B4z2

